X: 1
T: Daniel's Reel   (A)
C: Bob Shakespeare
B: RSCDS 47-3
N: Tune for Flight to Melbourne
R: reel
Z: 2014 John Chambers <jc:trillian.mit.edu>
M: C|
L: 1/8
K: A
e2 |\
"A"A2ce "E7"dBGB | "A"ABcA "D"F2AF | "A"E2Ac ecAc | "E7"B2ef edcB |
"A"A2ce "E7"dBGB | "F#m"ABcA "D"F2AF | "A"EAce "E7"dBed | "(A)"cE"E7"GB "A"A2 :|
|: cd |\
"A"e2ce "F#m"aece | "Bm"dedc "(B7)"B2gf | "E"e2ef "E7"edBG | "A"AGAB "E7"c2cd |
"A"e2ce "F#m"aece | "Bm"dedc "(B7)"B2GF | "A"EAce "E7"dBed | "(A)"cE"E7"GB "A"A2 :|
